img/footer/face.svg

<svg width="30" height="30" viewBox="0 0 30 30" fill="none" xmlns="http://www.w3.org/2000/svg">
<path d="M25.2027 3.94727C25.5445 3.94727 25.8374 4.06922 26.0814 4.31313C26.3253 4.55704 26.4473 4.8499 26.4473 5.19171V25.202C26.4473 25.5438 26.3253 25.8367 26.0814 26.0806C25.8374 26.3245 25.5445 26.4464 25.2027 26.4464H19.4745V17.7304H22.3903L22.83 14.3318H19.4753V12.1637C19.4753 11.6168 19.5902 11.2066 19.8199 10.9332C20.0496 10.6597 20.4965 10.523 21.1605 10.523L22.9482 10.5083V7.47632C22.3329 7.38827 21.4635 7.34425 20.3401 7.34425C19.0115 7.34425 17.9494 7.735 17.1536 8.5165C16.3577 9.298 15.9598 10.4016 15.9598 11.8274V14.3326H13.0301V17.7313H15.9598V26.4473H5.19184C4.85 26.4473 4.55711 26.3253 4.31317 26.0814C4.06923 25.8375 3.94727 25.5446 3.94727 25.2028V5.19253C3.94727 4.85072 4.06923 4.55786 4.31317 4.31395C4.55711 4.07004 4.85 3.94809 5.19184 3.94809H25.2043L25.2027 3.94727Z" fill="white"/>
</svg>

<svg width="30" height="30" fill="none" xmlns="http://www.w3.org/2000/svg"><path d="M25.203 3.947c.341 0 .634.122.878.366s.366.537.366.879v20.01c0 .342-.122.635-.366.879a1.199 1.199 0 01-.878.365h-5.729V17.73h2.916l.44-3.398h-3.355v-2.168c0-.547.115-.957.345-1.23.23-.274.677-.411 1.34-.411l1.788-.015V7.476c-.615-.088-1.485-.132-2.608-.132-1.328 0-2.39.391-3.186 1.173-.796.781-1.194 1.885-1.194 3.31v2.506h-2.93v3.398h2.93v8.716H5.192c-.342 0-.635-.122-.879-.366a1.198 1.198 0 01-.366-.878V5.193c0-.342.122-.635.366-.879s.537-.366.879-.366h20.012-.001z" fill="#fff"/></svg>
